!! 00000] TT[WS
!!!OTL: Zhong yangyan
!!!ARE: Asia, China, Shanxi Zuoqun
!! Ethnic Group: Han
!! WI, 265 (2)
!!!SCT: J0313
!!!YEM: Copyright 1995, estate of Helmut Schaffrath.
**kern
*ICvox
*Ivox
*M2/4
*k[f#]
*G:
{8b
8a
8g
8e
=1
8dd
8ee
8dd
8b
=2
8dd
16a
16b
8g
8f#
=3
8e
4.B}
=4
{8dd
8ee
8dd
8b
=5
8dd
16a
16b
8g
8f#
=6
16e
16d
8e
8a
16e
16f#
=7
8e
4.d}
==
!!!AGN: Xiaodiao. Laodong, Zhongzhi
!!!ONB: ESAC (Essen Associative Code) Database: CHINA
!!!AMT: simple duple
!!!AIN: vox
!!!EED: Helmut Schaffrath
!!!EEV: 1.0
*-
